symbolic/64x64/apps/speed-dreams.svg

<svg xmlns="http://www.w3.org/2000/svg" width="64" height="64" version="1">
 <path style="opacity:0.2" d="m 50.16374,11.000587 c -5.142627,0 -9.55794,3.305936 -10.849828,7.66982 -0.05294,0.177586 0.0077,0.379104 -0.03126,0.562493 C 37.17876,18.445838 34.759151,18.03565 32.093716,18.03565 23.718956,18.013161 15.391274,18.000494 7.0008011,18.000494 4.7905482,18.000715 2.9991419,19.792613 3,22.002394 c 0.092391,3.485581 -0.00104,6.613122 0.00781,10.007679 0.0056,2.205203 1.7951196,3.989968 4.000801,3.990181 l 3.91094,0 -3.6550293,11.656094 c -0.01674,0.05305 -0.032372,0.10645 -0.046884,0.160154 -0.4943163,1.841577 0.1775794,4.148034 1.5745364,5.447193 C 10.189132,54.562855 11.938821,55 13.640803,55 l 10.093818,0 C 34.80463,55 42.188808,48.39626 44.623568,40.519724 l 0.002,-0.01172 1.379137,-4.50775 0.03126,0 c 0.265716,0 0.51899,-6.9e-4 0.76187,0 5.284307,0.02325 9.720039,-3.386678 11.035414,-7.845599 0.576839,-1.951965 0.168381,-4.172791 -0.789221,-5.841719 1.206757,-0.532497 2.289371,-1.259707 3.068973,-2.271453 1.208127,-1.567901 1.007309,-3.769783 0.427821,-4.943294 -0.579492,-1.173512 -1.364085,-1.861712 -2.217245,-2.427702 -1.706319,-1.13198 -3.848661,-1.691223 -6.448557,-1.6699 -0.576775,2.8e-5 -1.140081,7.4e-4 -1.70542,0 l -0.0059,0 z"/>
 <path style="fill:#4f4f4f" d="m 50.16374,10.000587 c -5.142627,0 -9.55794,3.305936 -10.849828,7.66982 -0.05294,0.177586 0.0077,0.379104 -0.03126,0.562493 C 37.17876,17.445838 34.759151,17.03565 32.093716,17.03565 23.718956,17.013161 15.391274,17.000494 7.0008011,17.000494 4.7905482,17.000715 2.9991419,18.792613 3,21.002394 c 0.092391,3.485581 -0.00104,6.613122 0.00781,10.007679 0.0056,2.205203 1.7951196,3.989968 4.000801,3.990181 l 3.91094,0 -3.6550293,11.656094 c -0.01674,0.05305 -0.032372,0.10645 -0.046884,0.160154 -0.4943163,1.841577 0.1775794,4.148034 1.5745364,5.447193 C 10.189132,53.562855 11.938821,54 13.640803,54 l 10.093818,0 C 34.80463,54 42.188808,47.39626 44.623568,39.519724 l 0.002,-0.01172 1.379137,-4.50775 0.03126,0 c 0.265716,0 0.51899,-6.9e-4 0.76187,0 5.284307,0.02325 9.720039,-3.386678 11.035414,-7.845599 0.576839,-1.951965 0.168381,-4.172791 -0.789221,-5.841719 1.206757,-0.532497 2.289371,-1.259707 3.068973,-2.271453 1.208127,-1.567901 1.007309,-3.769783 0.427821,-4.943294 -0.579492,-1.173512 -1.364085,-1.861712 -2.217245,-2.427702 -1.706319,-1.13198 -3.848661,-1.691223 -6.448557,-1.6699 -0.576775,2.8e-5 -1.140081,7.4e-4 -1.70542,0 l -0.0059,0 z"/>
 <path style="opacity:0.2" d="m 50.154297,15 c -3.76348,0 -6.173882,1.95194 -7.015625,4.810547 -1.600109,5.356851 6.830823,4.083879 5.839844,7.40625 -0.381817,1.28764 -1.438113,1.844227 -2.998047,1.871094 l -1.97461,0 L 43.753906,32 l 2.273438,0 c 0.259878,0 0.519146,-7.63e-4 0.779297,0 3.762995,0.01656 6.337928,-2.119781 7.179687,-4.978516 1.643541,-5.562755 -7.155413,-4.069298 -6.167969,-7.339843 0.286883,-1.032456 1.335436,-1.752809 2.404297,-1.767579 0.980003,-0.01654 1.749449,0.188214 2.0625,0.433594 1.600735,1.254659 3.544821,0.684504 4.648438,-0.748047 C 57.517178,16.842075 55.810118,14.967911 51.898438,15 c -0.584942,0 -1.160965,7.64e-4 -1.744141,0 z M 7,22 l 0.00195,5 6.2109379,0 4.175781,0 9.443359,0 0.810547,0 0.648438,0 c 4.200979,0.302003 5.961832,2.897166 4.716796,7.011719 l -1.857421,5.416015 C 29.895206,43.544922 26.757938,46 21.935547,46 l -0.568359,0 3.8125,-12 -9.44336,0 -4.65625,14.853516 C 10.788684,49.939332 11.677931,51 13.638672,51 l 10.091797,0 c 9.644798,0 15.048911,-5.146687 17.0625,-11.662109 l 1.544922,-5.052735 c 2.08642,-6.787108 -0.605218,-12.25 -10.25,-12.25 l -3.242188,0 C 21.57027,22.011536 14.316972,22 7,22 Z M 7,29.005859 7.0078125,32 l 7.4003905,0 13.449219,0 c 0.491375,-1.551063 -0.366409,-3.112221 -1.378906,-2.994141 l -11.730469,0 -7.748047,0 z"/>
 <path style="fill:#ffffff" d="m 26.478214,28.006194 -11.730215,0 -7.747999,0 0.00775,2.993696 7.399589,0 13.45014,0 c 0.491375,-1.551063 -0.366034,-3.111776 -1.378531,-2.993696 z"/>
 <path style="fill:#ffffff" d="m 43.754622,30.999889 2.271843,0 c 0.259878,0 0.519192,-7.63e-4 0.779343,0 3.762995,0.01656 6.339433,-2.119203 7.181192,-4.977938 1.643541,-5.562755 -7.156262,-4.070307 -6.168818,-7.340852 0.286883,-1.032456 1.33625,-1.751329 2.405111,-1.766099 0.980003,-0.01654 1.749156,0.187421 2.062207,0.432801 1.600735,1.254659 3.544666,0.68495 4.648283,-0.747601 0.583584,-0.757534 -1.123833,-2.631875 -5.035514,-2.599786 -0.584941,0 -1.161052,7.64e-4 -1.744228,0 l 0,0 c -3.76348,0 -6.174298,1.952088 -7.016041,4.810695 -1.600109,5.356851 6.830979,4.08368 5.84,7.406051 -0.381817,1.28764 -1.437027,1.843344 -2.996961,1.870211 l -1.97566,0"/>
 <path style="fill:#f35654" d="m 7.0001192,21 0.00167,5 6.2113458,0 4.174752,0 9.443845,0 0.810629,0 0.648503,0 c 4.200979,0.302003 5.962063,2.897855 4.717027,7.012408 L 31.15117,38.427331 C 29.895985,42.544519 26.757187,45 21.934796,45 L 21.36736,45 25.179255,33 15.735411,33 11.08,47.854469 C 10.788606,48.940285 11.677862,50 13.638603,50 l 10.092347,0 c 9.644798,0 15.048065,-5.14685 17.061654,-11.662272 l 1.54516,-5.052597 C 44.424184,26.498023 41.732847,21.034538 32.088065,21.034538 l -3.242524,0 c -7.275433,-0.02362 -14.52849,-0.03427 -21.845462,-0.03427 l -1.16e-4,0 1.042e-4,6.61e-4 9.1e-6,-6.61e-4 z"/>
 <path style="fill:#ffffff;opacity:0.2" d="M 50.154297 14 C 46.390817 14 43.980415 15.95194 43.138672 18.810547 C 42.931916 19.502724 42.898139 20.081162 42.984375 20.576172 C 43.016238 20.334055 43.056316 20.086259 43.138672 19.810547 C 43.980415 16.95194 46.390817 15 50.154297 15 C 50.737473 15.000764 51.313496 15 51.898438 15 C 54.656015 14.977379 56.293891 15.899862 56.830078 16.712891 C 56.863069 16.673264 56.901957 16.640676 56.933594 16.599609 C 57.517178 15.842075 55.810117 13.967911 51.898438 14 C 51.313496 14 50.737473 14.000764 50.154297 14 z M 47.837891 19.630859 C 47.832541 19.648338 47.823267 19.663978 47.818359 19.681641 C 46.956536 22.536114 53.547747 21.76171 54.146484 25.216797 C 54.653134 21.167603 48.658446 21.578315 47.837891 19.630859 z M 7 21 L 7 22 C 14.316972 22 21.57027 22.011536 28.845703 22.035156 L 32.087891 22.035156 C 39.486541 22.035156 42.781345 25.25525 42.978516 29.816406 C 43.240057 24.731216 40.017397 21.035156 32.087891 21.035156 L 28.845703 21.035156 C 21.57027 21.011536 14.316972 21 7 21 z M 48.966797 26.248047 C 48.576718 27.511997 47.526893 28.061256 45.980469 28.087891 L 44.005859 28.087891 L 43.753906 31 L 43.839844 31 L 44.005859 29.087891 L 45.980469 29.087891 C 47.540403 29.061024 48.596699 28.504437 48.978516 27.216797 C 49.09156 26.837804 49.070086 26.524107 48.966797 26.248047 z M 7 28.005859 L 7.0019531 29.005859 L 14.748047 29.005859 L 26.478516 29.005859 C 27.171034 28.925096 27.779738 29.636092 27.945312 30.585938 C 28.181494 29.1844 27.400377 27.898349 26.478516 28.005859 L 14.748047 28.005859 L 7 28.005859 z M 33.373047 31.109375 C 33.328613 31.701489 33.213006 32.333601 33.007812 33.011719 L 31.150391 38.427734 C 29.895206 42.544922 26.757938 45 21.935547 45 L 21.685547 45 L 21.367188 46 L 21.935547 46 C 26.757938 46 29.895209 43.544922 31.150391 39.427734 L 33.007812 34.011719 C 33.333767 32.934515 33.448993 31.964413 33.373047 31.109375 z M 15.736328 33 L 11.080078 47.853516 C 10.998986 48.155688 11.019714 48.452557 11.119141 48.728516 L 15.736328 34 L 24.861328 34 L 25.179688 33 L 15.736328 33 z"/>
 <path style="opacity:0.1;fill:#ffffff" d="M 50.164062 10 C 45.021436 10 40.606341 13.306038 39.314453 17.669922 C 39.261513 17.847508 39.322163 18.049033 39.283203 18.232422 C 37.179311 17.44536 34.759185 17.035156 32.09375 17.035156 C 23.71899 17.012667 15.390473 17 7 17 C 4.7897471 17.000221 2.9991419 18.792172 3 21.001953 C 3.0078346 21.297524 3.008334 21.578338 3.0136719 21.869141 C 3.084542 19.722279 4.835253 18.000216 7 18 C 15.390473 18 23.71899 18.012667 32.09375 18.035156 C 34.759185 18.035156 37.179311 18.44536 39.283203 19.232422 C 39.322163 19.049033 39.261513 18.847508 39.314453 18.669922 C 40.606341 14.306038 45.021436 11 50.164062 11 L 50.169922 11 C 50.735261 11.00074 51.298225 11.000028 51.875 11 C 54.474896 10.978677 56.6179 11.537942 58.324219 12.669922 C 59.177379 13.235912 59.961524 13.924144 60.541016 15.097656 C 60.75148 15.523864 60.909495 16.087211 60.970703 16.705078 C 61.05533 15.709482 60.861111 14.745875 60.541016 14.097656 C 59.961524 12.924144 59.177379 12.235912 58.324219 11.669922 C 56.6179 10.537942 54.474896 9.978677 51.875 10 C 51.298225 10.000028 50.735261 10.00074 50.169922 10 L 50.164062 10 z M 57.4375 22.117188 C 57.306104 22.181623 57.179662 22.253044 57.044922 22.3125 C 57.622546 23.319195 57.993882 24.527684 58.076172 25.755859 C 58.163049 24.50725 57.916403 23.234166 57.4375 22.117188 z M 3.0371094 24.464844 C 3.0365261 26.647887 3.0019827 28.773658 3.0078125 31.009766 C 3.0078567 31.027181 3.0134058 31.043185 3.0136719 31.060547 C 3.0190215 28.837821 3.0501151 26.687656 3.0371094 24.464844 z M 10.605469 36 L 7.2636719 46.65625 C 7.2469319 46.7093 7.2313089 46.762702 7.2167969 46.816406 C 7.0701854 47.362608 7.0388796 47.949482 7.0859375 48.539062 C 7.111975 48.292564 7.1538616 48.050872 7.2167969 47.816406 C 7.2313089 47.762702 7.2469319 47.7093 7.2636719 47.65625 L 10.919922 36 L 10.605469 36 z"/>
</svg>

<svg xmlns="http://www.w3.org/2000/svg" width="64" height="64" version="1"><path style="opacity:.2" d="M50.164 11c-5.143 0-9.558 3.307-10.85 7.67-.053.178.008.38-.031.563-2.104-.787-4.524-1.197-7.19-1.197C23.72 18.013 15.392 18 7.002 18A4 4 0 0 0 3 22.002c.092 3.486-.001 6.614.008 10.008a4 4 0 0 0 4 3.99h3.912L7.265 47.656a3.998 3.998 0 0 0-.047.16c-.495 1.842.177 4.149 1.574 5.448C10.19 54.563 11.94 55 13.641 55h10.094c11.07 0 18.454-6.604 20.889-14.48l.002-.012L46.005 36h.793c5.284.024 9.72-3.386 11.035-7.845.577-1.952.169-4.173-.789-5.842 1.207-.533 2.29-1.26 3.069-2.272 1.208-1.567 1.007-3.77.428-4.943-.58-1.173-1.364-1.862-2.217-2.428-1.707-1.131-3.85-1.69-6.449-1.67h-1.711z"/><path style="fill:#4f4f4f" d="M50.164 10c-5.143 0-9.558 3.307-10.85 7.67-.053.178.008.38-.031.563-2.104-.787-4.524-1.197-7.19-1.197C23.72 17.013 15.392 17 7.002 17A4 4 0 0 0 3 21.002c.092 3.486-.001 6.614.008 10.008a4 4 0 0 0 4 3.99h3.912L7.265 46.656a3.998 3.998 0 0 0-.047.16c-.495 1.842.177 4.149 1.574 5.448C10.19 53.563 11.94 54 13.641 54h10.094c11.07 0 18.454-6.604 20.889-14.48l.002-.012L46.005 35h.793c5.284.024 9.72-3.386 11.035-7.845.577-1.952.169-4.173-.789-5.842 1.207-.533 2.29-1.26 3.069-2.272 1.208-1.567 1.007-3.77.428-4.943-.58-1.173-1.364-1.862-2.217-2.428-1.707-1.131-3.85-1.69-6.449-1.67h-1.711z"/><path style="opacity:.2" d="M50.154 15c-3.763 0-6.174 1.952-7.015 4.81-1.6 5.357 6.83 4.084 5.84 7.407-.382 1.287-1.439 1.844-2.999 1.87h-1.974L43.754 32h3.053c3.763.017 6.338-2.12 7.18-4.979 1.643-5.562-7.156-4.069-6.169-7.34.287-1.032 1.336-1.752 2.405-1.767.98-.016 1.75.188 2.062.434 1.6 1.254 3.545.684 4.649-.748.583-.758-1.124-2.632-5.036-2.6h-1.744zM7 22l.002 5H28.29c4.201.302 5.962 2.897 4.717 7.012l-1.858 5.416C29.895 43.545 26.758 46 21.936 46h-.569l3.813-12h-9.444L11.08 48.854C10.79 49.939 11.678 51 13.64 51H23.73c9.645 0 15.05-5.147 17.063-11.662l1.545-5.053c2.086-6.787-.605-12.25-10.25-12.25h-3.242C21.57 22.012 14.317 22 7 22zm0 7.006L7.008 32h20.85c.49-1.551-.367-3.112-1.38-2.994H7z"/><path style="fill:#fff" d="M26.478 28.006H7L7.008 31h20.85c.49-1.551-.367-3.112-1.38-2.994zM43.755 31h3.051c3.763.016 6.34-2.12 7.181-4.978 1.644-5.563-7.156-4.07-6.169-7.34.287-1.033 1.336-1.752 2.405-1.767.98-.017 1.75.187 2.062.433 1.601 1.254 3.545.685 4.649-.748.583-.757-1.124-2.632-5.036-2.6h-1.744c-3.763 0-6.174 1.953-7.016 4.811-1.6 5.357 6.831 4.084 5.84 7.406-.382 1.288-1.437 1.844-2.997 1.87h-1.976"/><path style="fill:#f35654" d="m7 21 .002 5H28.29c4.2.302 5.962 2.898 4.717 7.012l-1.857 5.415C29.896 42.545 26.757 45 21.935 45h-.568l3.812-12h-9.444L11.08 47.854C10.789 48.94 11.678 50 13.639 50H23.73c9.645 0 15.048-5.147 17.062-11.662l1.545-5.053c2.086-6.787-.605-12.25-10.25-12.25h-3.242C21.57 21.01 14.317 21 7 21z"/><path style="fill:#fff;opacity:.2" d="M50.154 14c-3.763 0-6.174 1.952-7.015 4.81-.207.693-.24 1.271-.155 1.766.032-.242.072-.49.155-.765C43.98 16.95 46.39 15 50.154 15h1.744c2.758-.023 4.396.9 4.932 1.713.033-.04.072-.072.104-.113.583-.758-1.124-2.632-5.036-2.6h-1.744zm-2.316 5.63c-.005.018-.015.034-.02.052-.861 2.854 5.73 2.08 6.328 5.535.507-4.05-5.488-3.639-6.308-5.586zM7 21v1c7.317 0 14.57.012 21.846.035h3.242c7.399 0 10.693 3.22 10.89 7.781.262-5.085-2.96-8.78-10.89-8.78h-3.242C21.57 21.011 14.317 21 7 21zm41.967 5.248c-.39 1.264-1.44 1.813-2.987 1.84h-1.974L43.754 31h.086l.166-1.912h1.974c1.56-.027 2.617-.584 2.999-1.871.113-.38.091-.693-.012-.969zM7 28.006l.002 1h19.476c.693-.08 1.302.63 1.467 1.58.236-1.402-.545-2.688-1.466-2.58H7zm26.373 3.103a8.839 8.839 0 0 1-.365 1.903l-1.858 5.416C29.895 42.545 26.758 45 21.936 45h-.25l-.319 1h.569c4.822 0 7.96-2.455 9.214-6.572l1.858-5.416c.326-1.077.441-2.048.365-2.903zM15.736 33 11.08 47.854c-.081.302-.06.599.04.875L15.735 34h9.125l.319-1h-9.444z"/><path style="opacity:.1;fill:#fff" d="M50.164 10c-5.143 0-9.558 3.306-10.85 7.67-.052.178.008.379-.03.562-2.105-.787-4.525-1.197-7.19-1.197A9324.3 9324.3 0 0 0 7 17a4 4 0 0 0-4 4.002c.008.296.008.576.014.867A3.993 3.993 0 0 1 7 18c8.39 0 16.719.013 25.094.035 2.665 0 5.085.41 7.19 1.197.038-.183-.022-.384.03-.562 1.292-4.364 5.707-7.67 10.85-7.67h1.711c2.6-.021 4.743.538 6.45 1.67.852.566 1.637 1.254 2.216 2.428.21.426.368.99.43 1.607.084-.996-.11-1.96-.43-2.607-.58-1.174-1.364-1.862-2.217-2.428-1.706-1.132-3.85-1.691-6.449-1.67h-1.711zm7.273 12.117c-.13.065-.257.136-.392.195a8.104 8.104 0 0 1 1.031 3.444c.087-1.249-.16-2.522-.639-3.639zm-54.4 2.348c0 2.183-.035 4.309-.03 6.545 0 .017.006.033.007.05.005-2.222.036-4.372.023-6.595zM10.605 36 7.264 46.656a3.998 3.998 0 0 0-.047.16c-.147.547-.178 1.133-.131 1.723a4.683 4.683 0 0 1 .178-.883L10.92 36h-.315z"/></svg>
